packages/foundations/assets/icons/functional/images/security/lock_open_16.svg

<svg width="16" height="16" viewBox="0 0 16 16" fill="none" xmlns="http://www.w3.org/2000/svg">
<g clip-path="url(#clip0_187_258)">
<path fill-rule="evenodd" clip-rule="evenodd" d="M8.00001 1.60001C9.54931 1.60001 10.8679 2.70861 11.1462 4.21563C11.2265 4.65011 10.9393 5.06738 10.5048 5.14763C10.1014 5.22214 9.71277 4.97986 9.59506 4.597C9.4346 3.73727 8.77433 3.20001 8.00001 3.20001C7.15679 3.20001 6.40285 3.87874 6.40052 4.7995C6.39916 5.33753 6.39916 5.87561 6.40052 6.41374H11.2C12.0837 6.41374 12.8 7.13008 12.8 8.01374V12.8C12.8 13.6837 12.0837 14.4 11.2 14.4H4.80001C3.91636 14.4 3.20001 13.6837 3.20001 12.8V8.01374C3.20001 7.13008 3.91636 6.41374 4.80001 6.41374L4.80052 4.7995C4.80052 3.03247 6.23298 1.60001 8.00001 1.60001ZM11.2 8.01374H4.80001V12.8H11.2V8.01374ZM8.00001 8.80001C8.41028 8.80001 8.74842 9.10884 8.79463 9.50671L8.80001 9.60001V11.1961C8.80001 11.6379 8.44184 11.9961 8.00001 11.9961C7.58974 11.9961 7.25161 11.6873 7.20539 11.2894L7.20001 11.1961V9.60001C7.20001 9.15818 7.55818 8.80001 8.00001 8.80001Z" fill="#1A1C1F"/>
</g>
<defs>
<clipPath id="clip0_187_258">
<rect width="16" height="16" fill="white"/>
</clipPath>
</defs>
</svg>

<svg xmlns="http://www.w3.org/2000/svg" width="16" height="16" fill="none"><g clip-path="url(#a)"><path fill="#1A1C1F" fill-rule="evenodd" d="M8 1.6a3.2 3.2 0 0 1 3.146 2.616.8.8 0 0 1-1.55.381C9.434 3.737 8.773 3.2 8 3.2c-.843 0-1.597.679-1.6 1.6v1.614h4.8a1.6 1.6 0 0 1 1.6 1.6V12.8a1.6 1.6 0 0 1-1.6 1.6H4.8a1.6 1.6 0 0 1-1.6-1.6V8.014a1.6 1.6 0 0 1 1.6-1.6V4.799A3.2 3.2 0 0 1 8 1.6m3.2 6.414H4.8V12.8h6.4zM8 8.8a.8.8 0 0 1 .795.707L8.8 9.6v1.596a.8.8 0 0 1-1.595.093l-.005-.093V9.6a.8.8 0 0 1 .8-.8" clip-rule="evenodd"/></g><defs><clipPath id="a"><path fill="#fff" d="M0 0h16v16H0z"/></clipPath></defs></svg>
